dist/img/svg/wallet.svg

<svg width="18" height="18" viewBox="0 0 18 18" fill="none" xmlns="http://www.w3.org/2000/svg">
<path d="M13.3145 5.2875C13.1345 5.2575 12.947 5.25001 12.752 5.25001H5.25203C5.04203 5.25001 4.83953 5.26501 4.64453 5.29501C4.74953 5.08501 4.89953 4.89001 5.07953 4.71001L7.51703 2.265C8.54453 1.245 10.2095 1.245 11.237 2.265L12.5495 3.59251C13.0295 4.06501 13.2845 4.665 13.3145 5.2875Z" stroke="currentColor" stroke-width="1.5" stroke-linecap="round" stroke-linejoin="round"/>
<path d="M16.5 9V12.75C16.5 15 15 16.5 12.75 16.5H5.25C3 16.5 1.5 15 1.5 12.75V9C1.5 6.96 2.73 5.535 4.6425 5.295C4.8375 5.265 5.04 5.25 5.25 5.25H12.75C12.945 5.25 13.1325 5.25749 13.3125 5.28749C15.2475 5.51249 16.5 6.945 16.5 9Z" stroke="currentColor" stroke-width="1.5" stroke-linecap="round" stroke-linejoin="round"/>
<path d="M16.5 9.375H14.25C13.425 9.375 12.75 10.05 12.75 10.875C12.75 11.7 13.425 12.375 14.25 12.375H16.5" stroke="currentColor" stroke-width="1.5" stroke-linecap="round" stroke-linejoin="round"/>
</svg>

<svg width="18" height="18" viewBox="0 0 18 18" fill="none" xmlns="http://www.w3.org/2000/svg"><path d="M13.315 5.287a3.43 3.43 0 00-.563-.037h-7.5c-.21 0-.412.015-.607.045.105-.21.255-.405.435-.585l2.437-2.445a2.644 2.644 0 013.72 0l1.313 1.328a2.53 2.53 0 01.764 1.694z" stroke="currentColor" stroke-width="1.5" stroke-linecap="round" stroke-linejoin="round"/><path d="M16.5 9v3.75c0 2.25-1.5 3.75-3.75 3.75h-7.5C3 16.5 1.5 15 1.5 12.75V9c0-2.04 1.23-3.465 3.143-3.705.195-.03.397-.045.607-.045h7.5c.195 0 .383.007.563.037C15.246 5.512 16.5 6.945 16.5 9z" stroke="currentColor" stroke-width="1.5" stroke-linecap="round" stroke-linejoin="round"/><path d="M16.5 9.375h-2.25c-.825 0-1.5.675-1.5 1.5s.675 1.5 1.5 1.5h2.25" stroke="currentColor" stroke-width="1.5" stroke-linecap="round" stroke-linejoin="round"/></svg>
